X:1
T:Kyrie
T:Kyrie
T:Missa L'homme armé
T:Johannes Ockeghem (1420-1497)
C:Johannes Ockegjem (1420-1497)
%%score [ 1 2 3 4 ]
L:1/8
M:3/2
K:C
V:1 treble nm="Soprano"
V:2 treble nm="Alto"
V:3 treble-8 nm="Tenor"
V:4 bass nm="Bass"
V:1
 G6 A2 B3 c | A6 GF E4 | D4 z4 c4 | d6 e4 d2 | c2 BA G2 c3 B B2 | A2 d4 c2 B2 A2 | c2 B4 A4 G2 | %7
w: Ky- * * *|* ri- * *|e e-|le- * *|* * * * i- * *|son, Ky- * * *|ri- e _ e-|
 A6 F2 E4 | D4 G4 A4 | B4 G2 A2 B2 d2- | d c A8 F2 | G3 F/E/ D2 G4 ^F2 | G12 || G8 B4 | c4 A6 G2 | %15
w: le- i- son,|Ky- * ri-|e e- * * *|* * * le-|* * * * * i-|son.|Chri- *||
 B4 G4 c4 | d4 f8 | _e4 d8 | c8 B4 | c8 A4 | F4 _B8 | A4 G8 | F8 E4 | F8 z4 | A6 B2 c2 Bc | %25
w: * * ste|e- le-||* i-|son, e-|le- *||* i-|son,|Chri- * * * *|
 d6 B4 G2 | G2 FG A2 E2 F4 | G12 || D8 D4 | E4 A6 G2 | G6 ^F2 F2 E2 | G4 z4 E4 | F3 G A2 _B4 G2 | %33
w: * ste e-|le- * * * * i-|son.|Ky- ri-|e _ e-|le- * i- *|son, Ky-|ri- * * e e-|
 _B2 A4 F2 E4 | D4 z4 F4 | G4 A6 G2 | G4 F2 E4 C2 | B,2 E3 D B,2 A,2 D2- | D2 E2 D F2 G ABcd | %39
w: le- * i- *|son, Ky-|ri- * *|e _ _ e-|le- i- * * son, e-||
 B2 A d2 B2 G A ^F2 E/F/ | G12 |] %41
w: le- * * * * * i- * *|son.|
V:2
 D12 | F4 E3 F G2 A2 | D2 G4 F2 F2 E2 | G8 G3 E | F2 G4 E2 D4 | C2 B,2 G,2 z2 D4 | C2 D2 A,4 B,4 | %7
w: Ky-|* ri- * * e|e- le- * i- *|son, Ky- *|* * * ri-|e _ _ e-|* * le- *|
 A,2 A,2 D2 D3 B, C2 | A,2 B,3 G, G3 E F2 | G4 z4 G4 | F4 E2 C2 F4 | E2 G3 F E2 D4 | D12 || D12 | %14
w: * i- son, Ky- * *|* * * ri- * *|e e-|* * * le-|* i- * * *|son.|Chri-|
 C12 | D4 E8 | F8 D4 | C4 B,4 C4 | E4 D8 | E8 C4 | D4 G,8 | C12- | C4 B,8 | C8 E4 | F2 G2 A8 | %25
w: |ste e-|le- *||* i-|son, e-|le- *||* i-|son, e-|le- * *|
 G6 F2 E2 D2 | D8 C4 | D12 || G8 G4 | E4 F6 D2 | D4 z4 D4 | B,12 | A,4 z8 | D6 B,2 C4 | D3 C A,8 | %35
w: |* i-|son.|Ky- ri-||e e-|lei-|son,|Ky- * *|ri- * e|
 z4 E4 F4 | D4 C3 D E4 | z2 C3 D G,2 A,4 | B,4 A,4 z2 F2 | D E2 F G2 E2 D4 | D12 |] %41
w: e- *|le- i- * son,|Ky- * ri- *|e _ e-|le- * * * * i-|son.|
V:3
 G8 G4 | c8 c4 | B4 A8 | G8 z4 | z12 | z12 | z12 | d4 d4 G4 | z12 | z4 d4 d4 | d4 c8 | B4 A8 | %12
w: Ky- ri-|e e-|le- i-|son,||||Ky- ri- e||Ky- ri-|e e-|le- i-|
 G12 || g8 g4 | f8 f4 | g8 g4 | d12 | g8 g4 | f8 f4 | g8 e4 | d12 | z12 | z8 g4 | a8 g4 | f4 e8 | %25
w: son.|Chri- ste|_ e-|le- i-|son,|Chri- ste|_ e-|le- i-|son,||e-|le- *||
 d8 z4 | z12 | d12 || G8 G4 | c8 c4 | B4 A8 | G8 z4 | d4 d4 G4 | z12 | z4 d4 d4 | d4 c8 | B4 A8 | %37
w: i-||son.|Ky- ri-|e e-|le- i-|son,|Ky- ri- e||Ky- ri-|e e-|le- i-|
 G4 A2 G3 E F2 | G B2 c d4 c2 A2 | G2 D2 G2 B2 A4 | G12 |] %41
w: son, e- le- * *||* * * * i-|son.|
V:4
 G,12 | F,3 E, C,8 | G,4 C6 B,A, | B,8 G,4 | A,2 B,4 C2 G,4 | z2 G,4 E,2 D,2 F,2 | %6
w: Ky-|ri- * e|e- * * *|* le-|* * i- son,|Ky- * * *|
 E,2 D,2 F,4 G,4 | F,2 G,4 D,2 E,2 C,2 | D,2 G,4 B,2 A,2 D2 | z2 G,4 F,2 G,4 | D,4 z2 F,4 A,2 | %11
w: ri- * e _|e- * le- * *|* * i- * son,|Ky- * ri-|e e- *|
 G,2 E,2 F,2 G,2 D,4 | G,12 || G,12 | A,12 | G,4 C8 | _B,12 | C4 G,4 C4- | C4 D8 | C12 | _B,8 G,4 | %21
w: * le- * * i-|son.|Chri-||ste e-|le-|* * i-||son,|_ e-|
 F,4 C,4 F,4 | A,4 G,8 | F,8 C4 | D4 C2 B,2 A,4 | B,4 G,8 | B,4 A,8 | G,12 || G,8 _B,4 | A,4 F,8 | %30
w: le- * i-||son, e-|le- * * *||* i-|son.|Ky- ri-|e e-|
 G,4 D,8 | D8 G,4 | D,8 z4 | D,4 F,3 G, A,4 | D,8 D,4 | G,4 C,4 F,4 | z2 G,2 A,3 G, E,2 F,2 | %37
w: le- *|* i-|son,|Ky- ri- * *|e e-|le- i- son,|Ky- ri- * * *|
 G,2 C,2 z2 G,2 D,4 | G,4 F,2 D,2 F,4 | G,2 A,2 B,2 G,2 D,4 | G,12 |] %41
w: * e e- le-||* * * * i-|son.|

